assets/Fire/Flat/fire_flat.svg

<svg width="32" height="32" viewBox="0 0 32 32" fill="none" xmlns="http://www.w3.org/2000/svg">
<path d="M26 19.3399C26 25.4393 20.9491 30.3451 14.8501 29.981C8.58145 29.6067 4.2892 23.5781 5.09774 17.2765C5.58685 13.4429 7.38361 10.1555 9.34008 7.6065C9.67947 7.16144 10.0288 10.7422 10.3782 10.3477C10.7276 9.94307 13.9717 4.32923 15.0997 2.35679C15.3093 1.99265 15.7884 1.88139 16.1278 2.14438C18.3937 3.85382 26 10.2769 26 19.3399Z" fill="#FF6723"/>
<path d="M23 21.8512C23 25.893 19.4812 29.142 15.2011 28.9952C10.5815 28.8386 7.41254 24.6109 8.09159 20.256C9.06903 14.0124 15.4789 10 15.4789 10C15.4789 10 23 14.7072 23 21.8512Z" fill="#FFB02E"/>
</svg>

<svg xmlns="http://www.w3.org/2000/svg" width="32" height="32" fill="none"><path fill="#FF6723" d="M26 19.34c0 6.1-5.05 11.005-11.15 10.641-6.269-.374-10.56-6.403-9.752-12.705.489-3.833 2.286-7.12 4.242-9.67.34-.445.689 3.136 1.038 2.742.35-.405 3.594-6.019 4.722-7.991a.694.694 0 0 1 1.028-.213C18.394 3.854 26 10.277 26 19.34Z"/><path fill="#FFB02E" d="M23 21.851c0 4.042-3.519 7.291-7.799 7.144-4.62-.156-7.788-4.384-7.11-8.739C9.07 14.012 15.48 10 15.48 10S23 14.707 23 21.851Z"/></svg>
